symbolic/24x24/places/folder-palebrown-documents.svg

<svg xmlns="http://www.w3.org/2000/svg" width="24" height="24" version="1"><rect style="opacity:.2" width="20" height="12" x="2" y="9.5" rx="1" ry="1"/><path style="fill:#bea389" d="M2 17c0 .554.446 1 1 1h18c.554 0 1-.446 1-1V6c0-.554-.446-1-1-1h-9c-1.5 0-2-2-3.5-2H3c-.554 0-1 .446-1 1"/><rect style="opacity:.2" width="20" height="12" x="2" y="8.5" rx="1" ry="1"/><rect style="fill:#e4e4e4" width="16" height="8" x="4" y="7" rx="1" ry="1"/><rect style="fill:#d1bfae" width="20" height="12" x="2" y="9" rx="1" ry="1"/><path style="opacity:.1;fill:#fff" d="M3 3c-.554 0-1 .446-1 1v.5c0-.554.446-1 1-1h5.5c1.5 0 2 2 3.5 2h9c.554 0 1 .446 1 1V6c0-.554-.446-1-1-1h-9c-1.5 0-2-2-3.5-2z"/><path style="fill:#a38d7b" d="M9.5 11c-.277 0-.5.223-.5.5v6c0 .277.223.5.5.5h5c.277 0 .5-.223.5-.5V13l-2-2z"/></svg>

<svg xmlns="http://www.w3.org/2000/svg" width="24" height="24" version="1">
 <rect style="opacity:0.2" width="20" height="12" x="2" y="9.5" rx="1" ry="1"/>
 <path style="fill:#bea389" d="M 2,17 C 2,17.554 2.446,18 3,18 H 21 C 21.554,18 22,17.554 22,17 V 6 C 22,5.446 21.554,5 21,5 H 12 C 10.5,5 10,3 8.5,3 H 3 C 2.446,3 2,3.446 2,4"/>
 <rect style="opacity:0.2" width="20" height="12" x="2" y="8.5" rx="1" ry="1"/>
 <rect style="fill:#e4e4e4" width="16" height="8" x="4" y="7" rx="1" ry="1"/>
 <rect style="fill:#d1bfae" width="20" height="12" x="2" y="9" rx="1" ry="1"/>
 <path style="opacity:0.1;fill:#ffffff" d="M 3,3 C 2.446,3 2,3.446 2,4 V 4.5 C 2,3.946 2.446,3.5 3,3.5 H 8.5 C 10,3.5 10.5,5.5 12,5.5 H 21 C 21.554,5.5 22,5.946 22,6.5 V 6 C 22,5.446 21.554,5 21,5 H 12 C 10.5,5 10,3 8.5,3 Z"/>
 <path style="fill:#a38d7b" d="M 9.5,11 C 9.223,11 9,11.223 9,11.5 V 17.5 C 9,17.777 9.223,18 9.5,18 H 14.5 C 14.777,18 15,17.777 15,17.5 V 13 L 13,11 Z"/>
</svg>
